X: 109
T:Christ Church Bells. JaW.109
M:C
L:1/8
Q:1/4=200
C:"in Oxon - Oxford"
S:James Winder Ms, Lancashire, 1835-41
R:Air
O:England
A:Wyresdale,Lancashire
H:1/8
Z:vmp.Chris Partington, Aug 2004
K:C
c3cc2c2|c2c2c2e2|d2c2B2A2|G6G2|!
E2G2C2G2|c2F2G2gf|e2a2def2|e3dc4:|!
|:e3ee2e2|e3ee2g2|f2(ef)d2c2|!
d2G2d3d|e2d2d2(cB|c2A2d2B2|c3de4:|!
gg gg g2 gg|g2ggg2G2|A3Bc2d2|B6AB|!
c2B2c2B2|c2d2B2AG|G2G2G3G|G6:|]
